frontend/public/svg/interface/mic-2.svg

<svg width="114" height="174" viewBox="0 0 114 174" fill="none" xmlns="http://www.w3.org/2000/svg">
<g clip-path="url(#clip0)">
<path d="M90.8677 24.8682C88.8544 19.5039 86.0444 13.3777 80.4437 8.60271C72.0265 1.42664 61.6838 -1.00283 48.8271 1.17508C34.1631 3.66024 23.9054 12.8009 19.1639 27.609C15.3207 39.5272 13.9219 52.0931 15.0505 64.5603C15.496 69.4905 15.8674 74.5139 16.2265 79.373C16.6461 85.0393 17.0794 90.8997 17.634 96.6546C18.1171 101.406 18.9475 106.116 20.1186 110.747C22.0273 118.431 26.7648 123.844 34.2001 126.834C41.8216 129.99 49.9848 131.646 58.2386 131.711C62.5855 131.711 66.9181 131.217 71.1524 130.237C83.0116 127.499 90.4527 120.705 93.2699 110.045C94.3603 106.168 95.0564 102.192 95.348 98.1766C95.7611 91.1539 95.9799 84.0108 96.1923 77.0961C96.2787 74.2804 96.3696 71.4647 96.4637 68.6497C96.4696 68.5015 96.4248 68.3553 96.3371 68.2357C96.2501 68.1154 96.1241 68.028 95.9812 67.9873C95.9812 67.1884 95.9773 66.389 95.9695 65.5895C95.9565 63.4277 95.9436 61.1909 95.9936 58.9994C96.2904 46.016 94.6142 34.8521 90.8677 24.8682ZM84.2981 66.5455L84.2935 71.8586C84.2935 71.9919 84.3338 72.1219 84.4091 72.2319C84.4844 72.3425 84.591 72.4272 84.7156 72.4764C84.5656 74.9952 84.4234 77.5146 84.2896 80.034C83.9188 86.7896 83.5363 93.7749 82.9258 100.619C82.6362 103.869 81.5672 107.143 80.5333 110.309L80.2963 111.037C79.3722 113.883 77.2992 116.052 73.9586 117.679C68.417 120.379 62.0949 121.422 55.1668 120.784C49.948 120.3 44.6461 118.973 39.6663 117.653C34.7774 116.359 31.5212 112.852 30.2496 107.514C29.4306 104.343 28.8744 101.11 28.5865 97.848C27.5234 82.3944 26.4245 65.8023 25.5907 49.1824C25.3334 44.6985 25.6087 40.1999 26.4109 35.7804C29.0157 22.0486 39.5942 12.2495 52.7347 11.3944C53.6153 11.3375 54.5083 11.3092 55.4071 11.3092C58.1208 11.3101 60.8285 11.5617 63.4957 12.0608C71.0102 13.4761 76.1309 17.8674 78.3026 24.7582C80.5366 31.834 82.3186 39.2022 83.9526 46.1415C84.2838 47.9206 84.3981 49.7328 84.2935 51.5392C84.2844 52.1214 84.2747 52.6985 84.2786 53.2723C84.3084 57.6954 84.3033 62.1948 84.2981 66.5455Z" fill="black"/>
<path d="M20.043 136.726C26.0404 141.572 33.0165 144.083 39.6621 146.074C42.8917 147.045 46.2369 147.766 49.4723 148.468C50.7627 148.747 52.0512 149.027 53.3344 149.321V163.377L53.1338 163.41C52.7882 163.476 52.4391 163.522 52.0882 163.549L51.6135 163.573C44.134 163.948 36.4007 164.337 28.7933 164.689C26.7853 164.782 24.6597 165.227 24.1265 167.824C23.6492 170.153 24.9117 172.065 27.4217 172.81C29.053 173.274 30.7426 173.503 32.4392 173.491H32.5191C36.5669 173.474 40.6804 173.421 44.6588 173.369C49.6386 173.304 54.7898 173.24 59.8475 173.244C65.404 173.249 71.0557 173.339 76.5219 173.425C79.9639 173.479 83.4013 173.533 86.8413 173.569C86.9582 173.569 87.077 173.569 87.1978 173.569C88.3603 173.598 89.5208 173.472 90.6489 173.194C91.6685 172.906 92.5595 172.281 93.1764 171.422C93.7927 170.564 94.098 169.522 94.0421 168.467C93.8018 166.221 92.6082 164.706 90.6807 164.199C89.3396 163.866 87.9635 163.696 86.5809 163.693C82.4161 163.641 78.2513 163.617 74.0866 163.593C71.359 163.577 68.6333 163.558 65.909 163.536C65.2936 163.531 64.6754 163.472 63.9538 163.407L63.3765 163.353L62.7849 149.692L65.4332 149.421C67.5469 149.206 69.4685 149.011 71.3902 148.801C84.7352 147.345 95.6403 140.742 103.802 129.177C109.878 120.567 112.825 110.382 113.349 96.1538C113.327 94.5406 113.072 92.939 112.591 91.3982C111.898 88.7171 110.352 87.2319 108.239 87.2157C107.196 87.1659 106.166 87.4622 105.31 88.0586C104.454 88.6543 103.82 89.5172 103.509 90.5101C102.683 92.9273 102.035 95.4015 101.57 97.9119C101.222 99.8369 100.981 101.816 100.748 103.733C100.325 107.215 99.8876 110.816 98.7933 114.105C94.5344 126.912 86.1607 134.791 73.906 137.521C62.1562 140.136 50.2867 139.167 37.6157 134.557C19.6377 128.014 8.78906 111.457 9.97881 92.3762L10.0061 91.9442C10.1988 90.0573 10.175 88.1543 9.9353 86.2727C9.75346 85.6135 9.42953 85.0016 8.98597 84.4796C8.54235 83.9576 7.98975 83.5385 7.36682 83.2506C5.83353 82.5993 4.22682 83.3574 3.27541 85.1873C2.98986 85.7274 2.7764 86.3031 2.64034 86.8982C1.41292 92.5438 0.144564 98.3815 1.42393 104.557C4.30153 118.402 10.3892 128.927 20.043 136.726Z" fill="black"/>
</g>
<defs>
<clipPath id="clip0">
<rect width="113" height="174" fill="white" transform="translate(0.777344)"/>
</clipPath>
</defs>
</svg>

<svg xmlns="http://www.w3.org/2000/svg" width="114" height="174" fill="none" viewBox="0 0 114 174"><g fill="#000" clip-path="url(#a)"><path d="M90.868 24.868c-2.014-5.364-4.824-11.49-10.424-16.265-8.418-7.176-18.76-9.606-31.617-7.428C34.163 3.66 23.905 12.801 19.164 27.61a93.1 93.1 0 0 0-4.114 36.95c.446 4.93.817 9.954 1.177 14.813.42 5.666.852 11.527 1.407 17.282a98 98 0 0 0 2.485 14.092c1.908 7.684 6.646 13.097 14.081 16.087a64.2 64.2 0 0 0 24.039 4.877c4.347 0 8.68-.494 12.913-1.474 11.86-2.738 19.3-9.532 22.118-20.192a60 60 0 0 0 2.078-11.868c.413-7.023.632-14.166.844-21.08q.13-4.225.272-8.447a.664.664 0 0 0-.483-.662q0-1.2-.012-2.398c-.012-2.162-.025-4.4.025-6.59.296-12.984-1.38-24.148-5.126-34.132m-6.57 41.678-.005 5.313a.66.66 0 0 0 .423.617q-.226 3.78-.426 7.558c-.371 6.756-.754 13.74-1.364 20.585-.29 3.25-1.359 6.524-2.393 9.69l-.237.728c-.924 2.846-2.997 5.015-6.337 6.642-5.542 2.7-11.864 3.743-18.792 3.105-5.219-.484-10.52-1.811-15.5-3.131-4.89-1.294-8.146-4.801-9.417-10.139a59.6 59.6 0 0 1-1.663-9.666c-1.064-15.454-2.163-32.046-2.996-48.666a56.8 56.8 0 0 1 .82-13.402c2.605-13.731 13.183-23.53 26.324-24.386q1.322-.085 2.672-.085c2.714.001 5.422.253 8.089.752 7.514 1.415 12.635 5.806 14.807 12.697 2.234 7.076 4.016 14.444 5.65 21.384.33 1.779.445 3.59.34 5.397-.009.582-.018 1.16-.014 1.733.03 4.423.024 8.923.02 13.274"/><path d="M20.043 136.726c5.997 4.846 12.974 7.357 19.62 9.348 3.229.971 6.574 1.692 9.81 2.394 1.29.279 2.578.559 3.861.853v14.056l-.2.033a9 9 0 0 1-1.046.139l-.474.024c-7.48.375-15.213.764-22.82 1.116-2.009.093-4.134.538-4.667 3.135-.478 2.329.785 4.241 3.295 4.986 1.631.464 3.32.693 5.017.681h.08c4.048-.017 8.161-.07 12.14-.122 4.98-.065 10.13-.129 15.188-.125 5.557.005 11.209.095 16.675.181 3.442.054 6.88.108 10.32.144h.356a13 13 0 0 0 3.45-.375 4.68 4.68 0 0 0 2.528-1.772c.617-.858.922-1.9.866-2.955-.24-2.246-1.434-3.761-3.361-4.268a17.2 17.2 0 0 0-4.1-.506c-4.165-.052-8.33-.076-12.494-.1q-4.092-.024-8.178-.057c-.615-.005-1.234-.064-1.955-.129l-.578-.054-.591-13.661 2.648-.271c2.114-.215 4.035-.41 5.957-.62 13.345-1.456 24.25-8.059 32.412-19.624 6.076-8.61 9.023-18.795 9.547-33.023a16.7 16.7 0 0 0-.758-4.756c-.693-2.68-2.239-4.166-4.352-4.182a4.73 4.73 0 0 0-2.929.843 4.7 4.7 0 0 0-1.801 2.451 52.4 52.4 0 0 0-1.939 7.402c-.348 1.925-.589 3.904-.822 5.821-.423 3.482-.86 7.083-1.955 10.372-4.259 12.807-12.632 20.686-24.887 23.416-11.75 2.615-23.62 1.646-36.29-2.964-17.978-6.543-28.827-23.1-27.637-42.18l.027-.433a25 25 0 0 0-.07-5.671 4.7 4.7 0 0 0-2.57-3.022c-1.532-.652-3.14.106-4.09 1.936a7 7 0 0 0-.636 1.711C1.413 92.544.145 98.382 1.424 104.557c2.878 13.845 8.965 24.37 18.619 32.169"/></g><defs><clipPath id="a"><path fill="#fff" d="M.777 0h113v174h-113z"/></clipPath></defs></svg>
